Newaita-dark/.DP/22/skype-status-away-notification.svg

<svg xmlns="http://www.w3.org/2000/svg" xmlns:xlink="http://www.w3.org/1999/xlink" width="22px" height="22px" viewBox="0 0 22 22" version="1.1">
<g id="surface1">
<path style=" stroke:none;fill-rule:nonzero;fill:rgb(93.333334%,93.333334%,93.333334%);fill-opacity:1;" d="M 7.375 2.886719 C 5.21875 2.886719 3.484375 4.621094 3.484375 6.777344 C 3.484375 7.429688 3.644531 8.039062 3.925781 8.578125 C 3.640625 9.363281 3.484375 10.210938 3.484375 11.097656 C 3.484375 15.167969 6.761719 18.441406 10.832031 18.441406 C 11.148438 18.441406 11.460938 18.421875 11.769531 18.382812 C 12.445312 18.960938 13.324219 19.308594 14.289062 19.308594 C 16.441406 19.308594 18.175781 17.574219 18.175781 15.417969 C 18.175781 14.765625 18.019531 14.152344 17.738281 13.617188 C 18.023438 12.828125 18.175781 11.984375 18.175781 11.097656 C 18.175781 9.902344 17.894531 8.773438 17.390625 7.777344 C 17.144531 7.859375 16.875 7.902344 16.601562 7.902344 C 15.214844 7.902344 14.097656 6.789062 14.097656 5.402344 C 14.097656 5.113281 14.148438 4.835938 14.234375 4.582031 C 13.21875 4.050781 12.0625 3.75 10.832031 3.75 C 10.511719 3.75 10.203125 3.773438 9.894531 3.808594 C 9.21875 3.234375 8.335938 2.886719 7.375 2.886719 Z M 11.726562 7.902344 C 11.972656 7.902344 12.207031 8 12.375 8.175781 L 14.652344 10.449219 C 15.003906 10.804688 15.003906 11.378906 14.652344 11.730469 L 12.375 14.007812 C 12.148438 14.238281 11.8125 14.332031 11.496094 14.25 C 11.183594 14.164062 10.9375 13.921875 10.851562 13.605469 C 10.769531 13.289062 10.863281 12.953125 11.097656 12.726562 L 11.824219 11.996094 L 7.644531 11.996094 C 7.316406 12 7.011719 11.828125 6.847656 11.546875 C 6.683594 11.265625 6.683594 10.917969 6.847656 10.632812 C 7.011719 10.355469 7.316406 10.183594 7.644531 10.183594 L 11.824219 10.183594 L 11.097656 9.457031 C 10.832031 9.199219 10.75 8.808594 10.890625 8.46875 C 11.027344 8.125 11.359375 7.902344 11.726562 7.902344 Z M 11.726562 7.902344 "/>
<path style=" stroke:none;fill-rule:nonzero;fill:rgb(93.333334%,93.333334%,93.333334%);fill-opacity:1;" d="M 16.601562 3.808594 C 17.480469 3.808594 18.191406 4.523438 18.191406 5.402344 C 18.191406 6.28125 17.480469 6.992188 16.601562 6.992188 C 15.722656 6.992188 15.007812 6.28125 15.007812 5.402344 C 15.007812 4.523438 15.722656 3.808594 16.601562 3.808594 Z M 16.601562 3.808594 "/>
</g>
</svg>

<svg xmlns="http://www.w3.org/2000/svg" width="22pt" height="22pt" viewBox="0 0 22 22"><g fill="#bdbdbd"><path d="M7.375 2.887a3.881 3.881 0 0 0-3.89 3.89c0 .653.16 1.266.44 1.801a7.363 7.363 0 0 0-.44 2.52 7.329 7.329 0 0 0 7.347 7.343c.316 0 .629-.02.934-.058.68.578 1.558.926 2.523.926a3.88 3.88 0 0 0 3.887-3.891c0-.652-.156-1.266-.438-1.805a7.322 7.322 0 0 0 .438-2.515 7.335 7.335 0 0 0-.785-3.32c-.25.081-.516.124-.79.124a2.496 2.496 0 0 1-2.503-2.5c0-.289.05-.562.136-.82a7.315 7.315 0 0 0-3.402-.832c-.316 0-.629.023-.937.059a3.883 3.883 0 0 0-2.52-.922zm4.352 5.015c.246 0 .48.098.648.274l2.277 2.273a.91.91 0 0 1 0 1.281l-2.277 2.274a.906.906 0 0 1-.879.246.918.918 0 0 1-.644-.645.906.906 0 0 1 .246-.878l.726-.73h-4.18a.903.903 0 1 1 0-1.809h4.18l-.726-.731a.906.906 0 0 1 .629-1.555zm0 0"/><path d="M16.602 3.809a1.592 1.592 0 1 1-.005 3.184 1.592 1.592 0 0 1 .005-3.184zm0 0"/></g></svg>
